docs/img/ico-graph-inactive.svg

<?xml version="1.0" encoding="utf-8"?>
<svg width="28px" height="24px" viewbox="0 0 28 24" version="1.1" xmlns:xlink="http://www.w3.org/1999/xlink" xmlns="http://www.w3.org/2000/svg">
  <defs>
    <path d="M0 0L26.1679 0L26.1679 12.7489L0 12.7489L0 0Z" transform="translate(0 0.017668689)" id="path_1" />
    <path d="M0 0L22.9587 0L22.9587 11.5581L0 11.5581L0 0Z" transform="translate(0.006708498 0.090191625)" id="path_2" />
    <path d="M0 0L22.9577 0L22.9577 11.529L0 11.529L0 0Z" transform="translate(0.015626317 0.08694984)" id="path_3" />
    <clipPath id="mask_1">
      <use xlink:href="#path_1" />
    </clipPath>
    <clipPath id="mask_2">
      <use xlink:href="#path_2" />
    </clipPath>
    <clipPath id="mask_3">
      <use xlink:href="#path_3" />
    </clipPath>
  </defs>
  <g id="Group-10" transform="translate(0.25 0.25)">
    <g id="Group-3" transform="translate(0 5.184021)">
      <path d="M0 0L26.1679 0L26.1679 12.7489L0 12.7489L0 0Z" transform="translate(0 0.017668689)" id="Clip-2" fill="none" fill-rule="evenodd" stroke="none" />
      <g clip-path="url(#mask_1)">
        <path d="M16.6627 8.54849C16.2171 8.54424 15.8622 8.88416 15.8542 9.32281C15.8461 9.76728 16.2078 10.1356 16.6523 10.1353C17.0665 10.1351 17.4337 9.77163 17.4421 9.35343C17.4508 8.91331 17.1015 8.55266 16.6627 8.54849M2.37681 11.1431C2.82105 11.1437 3.16907 10.8111 3.16916 10.3857C3.16925 9.94307 2.80002 9.56392 2.37162 9.5667C1.92534 9.56966 1.58557 9.91208 1.58547 10.3592C1.58529 10.807 1.92386 11.1425 2.37681 11.1431M9.4914 6.00849C9.93684 6.01062 10.2892 5.66848 10.2942 5.22891C10.2992 4.78804 9.9536 4.43396 9.51103 4.42647C9.07355 4.41906 8.71099 4.7725 8.7071 5.21012C8.70321 5.65293 9.0504 6.00627 9.4914 6.00849M24.5631 2.36878C24.566 1.92727 24.2213 1.573 23.7811 1.56505C23.3544 1.55727 22.9821 1.92394 22.9793 2.35472C22.9764 2.79105 23.3314 3.15078 23.7668 3.15244C24.2131 3.1542 24.5602 2.81252 24.5631 2.36878M2.47979 8.03287C2.81253 8.02593 3.20222 8.11235 3.54857 8.3344C3.6873 8.42331 3.77509 8.39648 3.89483 8.30886C4.95214 7.53464 6.01175 6.76356 7.076 5.99896C7.20195 5.90857 7.22992 5.82956 7.19991 5.6781C7.00108 4.67109 7.42578 3.71035 8.28148 3.1999C9.15116 2.68104 10.1958 2.74211 10.9826 3.39235C11.6321 3.92907 11.9335 4.6302 11.8348 5.47899C11.8188 5.61694 11.8554 5.68356 11.9725 5.75008C12.9636 6.31382 13.9531 6.88051 14.9376 7.4559C15.0763 7.53695 15.1608 7.51882 15.2833 7.43C15.9751 6.92853 16.7263 6.84841 17.5167 7.15946C17.6375 7.20702 17.7048 7.19657 17.7958 7.10701C19.0281 5.89627 20.263 4.68821 21.5019 3.48422C21.602 3.38689 21.6079 3.31139 21.5626 3.18538C21.1328 1.99028 21.658 0.746968 22.8128 0.208029C23.895 -0.296955 25.2458 0.147982 25.8609 1.21198C26.7323 2.71925 25.6452 4.67146 23.9004 4.70273C23.5635 4.70875 23.2252 4.58745 22.8857 4.53666C22.8102 4.52537 22.7 4.53536 22.6515 4.58255C21.3959 5.80236 20.1449 7.02716 18.9003 8.25835C18.8505 8.30757 18.8374 8.44015 18.8639 8.51352C19.3709 9.92309 18.4958 11.4267 17.0155 11.6777C15.514 11.9322 14.112 10.5954 14.3116 9.09141C14.3317 8.94032 14.2859 8.87334 14.1625 8.80321C13.178 8.24345 12.1955 7.68008 11.2173 7.10913C11.0843 7.03141 11.0003 7.03345 10.8727 7.12375C10.0555 7.70229 9.20191 7.7343 8.32908 7.25356C8.2198 7.19333 8.14646 7.18935 8.04237 7.26494C6.95126 8.05831 5.85497 8.84447 4.76618 9.64071C4.70626 9.68457 4.65616 9.81114 4.67376 9.88108C4.96362 11.0331 4.2698 12.1654 3.2388 12.5786C2.17363 13.0055 0.977133 12.6109 0.359717 11.6031C-0.108879 10.8384 -0.113231 10.0351 0.309153 9.24768C0.722832 8.47642 1.53519 8.01936 2.47979 8.03287" transform="translate(-2.833645E-07 0.017668689)" id="Fill-1" fill="#452B78" fill-rule="evenodd" stroke="#FFFFFF" stroke-width="0.5" />
      </g>
    </g>
    <g id="Group-6" transform="translate(1.631958 0)">
      <path d="M0 0L22.9587 0L22.9587 11.5581L0 11.5581L0 0Z" transform="translate(0.006708498 0.090191625)" id="Clip-5" fill="none" fill-rule="evenodd" stroke="none" />
      <g clip-path="url(#mask_2)">
        <path d="M22.9386 3.5603L21.4063 3.5603C21.4063 3.40242 21.4072 3.21457 21.4061 3.02671C21.4007 2.08136 20.8776 1.55552 19.9285 1.55524C14.3006 1.55368 8.67272 1.55478 3.04485 1.55395C2.46571 1.55386 1.96234 1.71654 1.71381 2.27927C1.60638 2.52264 1.56789 2.81387 1.56687 3.08371C1.55669 5.82671 1.56067 8.56972 1.56067 11.3127L1.56067 11.5581L0.0131947 11.5581C0.0104188 11.5163 0.00190606 11.45 0.00190606 11.3837C0.00125835 8.56382 -0.00262792 5.74399 0.00301642 2.92407C0.00606991 1.41913 0.970881 0.288043 2.45886 0.0305635C2.63207 0.000591873 2.81195 0.00151408 2.98878 0.00151408C8.65514 0.000130771 14.3216 -0.000883654 19.9879 0.0011452C21.5369 0.00169852 22.6852 0.947788 22.9298 2.45273C22.9892 2.81793 22.9386 3.20092 22.9386 3.5603" transform="translate(0.006708498 0.09018996)" id="Fill-4" fill="#452B78" fill-rule="evenodd" stroke="#FFFFFF" stroke-width="0.5" />
      </g>
    </g>
    <g id="Group-9" transform="translate(1.631958 11.424011)">
      <path d="M0 0L22.9577 0L22.9577 11.529L0 11.529L0 0Z" transform="translate(0.015626317 0.08694984)" id="Clip-8" fill="none" fill-rule="evenodd" stroke="none" />
      <g clip-path="url(#mask_3)">
        <path d="M0.0201181 7.95378L1.56426 7.95378C1.56426 8.19597 1.54501 8.45733 1.56787 8.715C1.63468 9.46912 2.12629 9.925 2.88624 9.95883C2.94009 9.96114 2.99413 9.96003 3.04817 9.96003C8.67696 9.96012 14.3058 9.96022 19.9346 9.95994C20.6829 9.95994 21.196 9.61321 21.3704 8.97295C21.4139 8.813 21.4189 8.63894 21.4191 8.47143C21.4219 5.78251 21.421 3.09369 21.4211 0.404859C21.4211 -0.00160912 21.4482 -0.0145158 21.8489 0.00567393C22.2077 0.0237433 22.5681 0.00945374 22.9483 0.00945374C22.95 0.0468831 22.9562 0.121557 22.9562 0.196324C22.9567 2.99274 22.96 5.78915 22.9551 8.58556C22.9525 10.0291 22.0539 11.1545 20.6666 11.4592C20.4504 11.5068 20.2235 11.5256 20.0015 11.5258C14.3187 11.5293 8.63588 11.5302 2.95314 11.5274C1.43916 11.5266 0.270967 10.5548 0.029001 9.07205C-0.0305884 8.7067 0.0201181 8.32347 0.0201181 7.95378" transform="translate(0.015626317 0.08694984)" id="Fill-7" fill="#452B78" fill-rule="evenodd" stroke="#FFFFFF" stroke-width="0.5" />
      </g>
    </g>
  </g>
</svg>

<svg width="28" height="24" xmlns:xlink="http://www.w3.org/1999/xlink" xmlns="http://www.w3.org/2000/svg"><defs><clipPath id="d"><use xlink:href="#a"/></clipPath><clipPath id="e"><use xlink:href="#b"/></clipPath><clipPath id="f"><use xlink:href="#c"/></clipPath><path d="M0 0h26.168v12.749H0V0z" transform="translate(0 .018)" id="a"/><path d="M0 0h22.959v11.558H0V0z" transform="translate(.007 .09)" id="b"/><path d="M0 0h22.958v11.529H0V0z" transform="translate(.016 .087)" id="c"/></defs><path d="M.25 5.452h26.168V18.2H.25V5.45z" fill="none"/><g clip-path="url(#d)" transform="translate(.25 5.434)"><path d="M16.663 8.566a.788.788 0 00-.809.774.8.8 0 00.798.813.816.816 0 00.79-.782.787.787 0 00-.78-.805M2.378 11.161c.444 0 .792-.332.792-.758 0-.442-.369-.821-.797-.819a.778.778 0 00-.787.793.77.77 0 00.792.784M9.49 6.026a.786.786 0 00.803-.78.79.79 0 00-.783-.802.793.793 0 00-.804.784.784.784 0 00.784.798m15.072-3.64a.792.792 0 00-.782-.803.807.807 0 00-.802.79.794.794 0 00.788.797.78.78 0 00.796-.784M2.48 8.051c.333-.007.722.079 1.069.301.138.089.226.062.346-.025a434.316 434.316 0 013.181-2.31c.126-.09.154-.17.124-.321-.2-1.007.226-1.968 1.08-2.478.87-.52 1.915-.458 2.702.192.65.537.95 1.238.852 2.087-.016.138.02.204.137.27a281 281 0 012.966 1.707c.138.08.223.062.345-.026.692-.502 1.443-.582 2.234-.27.12.047.188.036.279-.053a948.393 948.393 0 013.706-3.623c.1-.097.106-.173.06-.299-.43-1.195.096-2.438 1.25-2.977 1.083-.505 2.434-.06 3.049 1.004.871 1.507-.216 3.46-1.96 3.49-.338.006-.676-.115-1.015-.166-.076-.011-.186-.001-.235.046a580.932 580.932 0 00-3.75 3.676c-.05.05-.064.182-.037.255a2.377 2.377 0 01-1.849 3.164c-1.501.255-2.903-1.082-2.703-2.586.02-.151-.026-.218-.15-.288a299.67 299.67 0 01-2.945-1.694c-.133-.078-.217-.076-.344.014-.818.579-1.671.611-2.544.13-.11-.06-.183-.064-.287.012-1.09.793-2.187 1.58-3.276 2.375-.06.044-.11.17-.092.24.29 1.153-.404 2.285-1.435 2.698-1.065.427-2.262.033-2.88-.975-.468-.765-.472-1.568-.05-2.356.414-.77 1.226-1.228 2.17-1.214" fill="#452B78" fill-rule="evenodd" stroke="#FFF" stroke-width=".5"/></g><path d="M1.889.34h22.958v11.558H1.89V.34z" fill="none"/><g clip-path="url(#e)" transform="translate(1.882 .25)"><path d="M22.945 3.65h-1.532v-.533c-.006-.945-.529-1.471-1.478-1.472H3.052c-.58-.001-1.083.162-1.331.724a2.057 2.057 0 00-.147.805c-.01 2.743-.007 5.486-.007 8.229v.245H.02c-.003-.042-.011-.108-.011-.174-.001-2.82-.005-5.64 0-8.46C.014 1.51.979.378 2.467.121c.173-.03.353-.03.53-.03 5.666 0 11.332-.002 16.999 0 1.549 0 2.697.947 2.942 2.452.059.365.008.748.008 1.107" fill="#452B78" fill-rule="evenodd" stroke="#FFF" stroke-width=".5"/></g><path d="M1.898 11.761h22.957V23.29H1.898V11.761z" fill="none"/><g clip-path="url(#f)" transform="translate(1.882 11.674)"><path d="M.036 8.04H1.58c0 .243-.02.504.003.762.067.754.559 1.21 1.319 1.244.054.002.108.001.162.001H19.95c.749 0 1.262-.347 1.436-.987a1.94 1.94 0 00.049-.502c.003-2.689.002-5.377.002-8.066 0-.407.027-.42.428-.4.358.019.719.004 1.099.004.002.038.008.113.008.187 0 2.797.004 5.593-.001 8.39-.003 1.443-.901 2.568-2.289 2.873a3.128 3.128 0 01-.665.067c-5.683.003-11.365.004-17.048.001-1.514 0-2.682-.972-2.924-2.455-.06-.365-.01-.749-.01-1.118" fill="#452B78" fill-rule="evenodd" stroke="#FFF" stroke-width=".5"/></g></svg>
